build/img/e.svg

<svg width="19" height="21" viewBox="0 0 19 21" fill="none" xmlns="http://www.w3.org/2000/svg">
<path d="M16.4751 9.47915C16.4023 5.28982 12.2289 1.75811 8.12837 2.34267C6.26006 2.61059 4.68291 3.39 3.32414 4.70526C2.93592 5.07061 2.57196 5.21675 2.15948 4.77833C1.50435 4.1207 1.33451 3.51179 1.74699 3.09772C3.6881 1.29534 5.8961 0.101862 8.58938 0.00443527C12.1562 -0.0929911 14.9465 1.41712 16.9847 4.2912C19.7265 8.18825 19.4596 13.6441 16.4023 17.2976C11.8165 22.7535 3.66383 21.4626 0.824969 14.8133C0.291165 13.5224 0 12.1827 0 10.7944C0 9.94193 0.266902 9.60094 1.11613 9.50351C1.43156 9.4548 1.74699 9.47915 2.06242 9.47915C6.62401 9.47915 11.1856 9.47915 15.7472 9.47915C15.9898 9.47915 16.2082 9.47915 16.4751 9.47915ZM2.37785 11.5495C2.71754 15.3735 5.99316 18.4911 9.53567 18.4424C12.8598 18.3693 16.1597 15.0568 16.3781 11.5495C11.7194 11.5495 7.08503 11.5495 2.37785 11.5495Z" fill="white"/>
</svg>

<svg width="19" height="21" viewBox="0 0 19 21" fill="none" xmlns="http://www.w3.org/2000/svg"><path d="M16.475 9.48c-.073-4.19-4.246-7.722-8.347-7.137C6.26 2.61 4.683 3.39 3.324 4.705c-.388.366-.752.512-1.165.073-.655-.657-.824-1.266-.412-1.68C3.688 1.295 5.897.102 8.589.004c3.567-.097 6.357 1.413 8.396 4.287 2.742 3.897 2.475 9.353-.583 13.007-4.586 5.456-12.738 4.165-15.577-2.485C.291 13.523 0 12.183 0 10.794c0-.852.267-1.193 1.116-1.29.316-.05.631-.025.946-.025h14.413zM2.378 11.55c.34 3.823 3.615 6.941 7.158 6.892 3.324-.073 6.624-3.385 6.842-6.893h-14z" fill="#fff"/></svg>
